X:1
T: The Green Tree
C:
R:Reel
Q: 232
K:D
M:4/4
L:1/8
|:f|dD DF ED Ef|ge fd ed Be|dD DF ED Eg|fd ef d1/2d1/2d df|
dD DF ED Ef|ge fd ed Be|dD DF ED Eg|fd ef d1/2d1/2d df|
af df ab af|ge fd ed Bf|af df ab af|ed ef d1/2d1/2d df|
af df ab af|gb fa ed Be|dD DF ED Eg|fd ef d1/2d1/2d d:|
